Newaita-dark/apps/32/maps.svg

<?xml version="1.0" encoding="UTF-8"?>
<svg xmlns="http://www.w3.org/2000/svg" xmlns:xlink="http://www.w3.org/1999/xlink" width="32pt" height="32pt" viewBox="0 0 32 32" version="1.1">
<defs>
<linearGradient id="linear0" gradientUnits="userSpaceOnUse" x1="254" y1="233.5" x2="254" y2="-168.666672" gradientTransform="matrix(0.062506,0,0,0.062506,0,13.438783)">
<stop offset="0" style="stop-color:rgb(39.215686%,70.980392%,96.470588%);stop-opacity:1;"/>
<stop offset="1" style="stop-color:rgb(56.470588%,79.215686%,97.647059%);stop-opacity:1;"/>
</linearGradient>
<linearGradient id="linear1" gradientUnits="userSpaceOnUse" x1="254" y1="233.5" x2="254" y2="254.666672" gradientTransform="matrix(0.062506,0,0,0.062506,-0.00000381506,13.438785)">
<stop offset="0" style="stop-color:rgb(0%,0%,0%);stop-opacity:0.27451;"/>
<stop offset="1" style="stop-color:rgb(0%,0%,0%);stop-opacity:0;"/>
</linearGradient>
<radialGradient id="radial0" gradientUnits="userSpaceOnUse" cx="450.908936" cy="189.579361" fx="450.908936" fy="189.579361" r="21.166656" gradientTransform="matrix(0.00000017417,-0.0781325,-0.140638,-0.000000101539,53.12293,63.595333)">
<stop offset="0" style="stop-color:rgb(0%,0%,0%);stop-opacity:0.313725;"/>
<stop offset="0.222222" style="stop-color:rgb(0%,0%,0%);stop-opacity:0.27451;"/>
<stop offset="1" style="stop-color:rgb(0%,0%,0%);stop-opacity:0;"/>
</radialGradient>
<radialGradient id="radial1" gradientUnits="userSpaceOnUse" cx="450.908936" cy="189.579361" fx="450.908936" fy="189.579361" r="21.166656" gradientTransform="matrix(-0.00000017417,0.0781325,0.140638,0.000000101539,-21.20452,-7.527479)">
<stop offset="0" style="stop-color:rgb(0%,0%,0%);stop-opacity:0.313725;"/>
<stop offset="0.222222" style="stop-color:rgb(0%,0%,0%);stop-opacity:0.27451;"/>
<stop offset="1" style="stop-color:rgb(0%,0%,0%);stop-opacity:0;"/>
</radialGradient>
<radialGradient id="radial2" gradientUnits="userSpaceOnUse" cx="450.908936" cy="189.579361" fx="450.908936" fy="189.579361" r="21.166656" gradientTransform="matrix(-0.00000017417,-0.0781325,0.140638,-0.000000101539,-21.20452,63.595333)">
<stop offset="0" style="stop-color:rgb(0%,0%,0%);stop-opacity:0.313725;"/>
<stop offset="0.222222" style="stop-color:rgb(0%,0%,0%);stop-opacity:0.27451;"/>
<stop offset="1" style="stop-color:rgb(0%,0%,0%);stop-opacity:0;"/>
</radialGradient>
<radialGradient id="radial3" gradientUnits="userSpaceOnUse" cx="450.908936" cy="189.579361" fx="450.908936" fy="189.579361" r="21.166656" gradientTransform="matrix(0.00000017417,0.0781325,-0.140638,0.000000101539,53.122929,-7.527479)">
<stop offset="0" style="stop-color:rgb(0%,0%,0%);stop-opacity:0.313725;"/>
<stop offset="0.222222" style="stop-color:rgb(0%,0%,0%);stop-opacity:0.27451;"/>
<stop offset="1" style="stop-color:rgb(0%,0%,0%);stop-opacity:0;"/>
</radialGradient>
<linearGradient id="linear2" gradientUnits="userSpaceOnUse" x1="306.916656" y1="233.5" x2="317.5" y2="-147.5" gradientTransform="matrix(0.062506,0,0,0.062506,0,13.438783)">
<stop offset="0" style="stop-color:rgb(29.803922%,68.627451%,31.372549%);stop-opacity:1;"/>
<stop offset="1" style="stop-color:rgb(40%,73.333333%,41.568627%);stop-opacity:1;"/>
</linearGradient>
<linearGradient id="linear3" gradientUnits="userSpaceOnUse" x1="960" y1="1695.118164" x2="960" y2="175.118118" >
<stop offset="0" style="stop-color:rgb(84.313725%,80%,78.431373%);stop-opacity:1;"/>
<stop offset="1" style="stop-color:rgb(93.72549%,92.156863%,91.372549%);stop-opacity:1;"/>
</linearGradient>
<linearGradient id="linear4" gradientUnits="userSpaceOnUse" x1="1240" y1="495.118103" x2="1240" y2="1375.118164" gradientTransform="matrix(0.264583,0,0,0.264583,0,-257.333099)">
<stop offset="0" style="stop-color:rgb(93.72549%,32.54902%,31.372549%);stop-opacity:1;"/>
<stop offset="1" style="stop-color:rgb(95.686275%,26.27451%,21.176471%);stop-opacity:1;"/>
</linearGradient>
</defs>
<g id="surface1">
<path style=" stroke:none;fill-rule:nonzero;fill:url(#linear0);" d="M 3.636719 2.894531 L 28.113281 2.894531 C 28.664062 2.894531 29.105469 3.339844 29.105469 3.886719 L 29.105469 27.042969 C 29.105469 27.589844 28.664062 28.035156 28.113281 28.035156 L 3.636719 28.035156 C 3.089844 28.035156 2.644531 27.589844 2.644531 27.042969 L 2.644531 3.886719 C 2.644531 3.339844 3.089844 2.894531 3.636719 2.894531 Z M 3.636719 2.894531 "/>
<path style=" stroke:none;fill-rule:nonzero;fill:url(#linear1);" d="M 5.125 28.035156 L 26.792969 28.035156 L 26.792969 29.355469 L 5.125 29.355469 Z M 5.125 28.035156 "/>
<path style=" stroke:none;fill-rule:nonzero;fill:url(#radial0);" d="M 26.792969 28.035156 L 29.4375 28.035156 L 29.4375 26.710938 L 26.792969 26.710938 Z M 26.792969 28.035156 "/>
<path style=" stroke:none;fill-rule:nonzero;fill:url(#radial1);" d="M 5.125 28.035156 L 2.480469 28.035156 L 2.480469 29.355469 L 5.125 29.355469 Z M 5.125 28.035156 "/>
<path style=" stroke:none;fill-rule:nonzero;fill:url(#radial2);" d="M 5.125 28.035156 L 2.480469 28.035156 L 2.480469 26.710938 L 5.125 26.710938 Z M 5.125 28.035156 "/>
<path style=" stroke:none;fill-rule:nonzero;fill:url(#radial3);" d="M 26.792969 28.035156 L 29.4375 28.035156 L 29.4375 29.355469 L 26.792969 29.355469 Z M 26.792969 28.035156 "/>
<path style=" stroke:none;fill-rule:nonzero;fill:url(#linear2);" d="M 29.105469 4.21875 L 17.730469 15.289062 L 29.105469 26.050781 Z M 15.71875 17.246094 L 4.628906 28.035156 L 27.121094 28.035156 Z M 15.71875 17.246094 "/>
<path style=" stroke:none;fill-rule:nonzero;fill:rgb(0%,0%,0%);fill-opacity:0.196078;" d="M 3.96875 28.035156 C 3.234375 28.035156 2.644531 27.445312 2.644531 26.710938 L 2.644531 26.546875 C 2.644531 27.277344 3.234375 27.867188 3.96875 27.867188 L 27.785156 27.867188 C 28.515625 27.867188 29.105469 27.277344 29.105469 26.546875 L 29.105469 26.710938 C 29.105469 27.445312 28.515625 28.035156 27.785156 28.035156 Z M 3.96875 28.035156 "/>
<path style="fill-rule:evenodd;fill:url(#linear3);stroke-width:11.338583;stroke-linecap:butt;stroke-linejoin:miter;stroke:rgb(12.941177%,12.941177%,12.941177%);stroke-opacity:1;stroke-miterlimit:4;" d="M 1639.922222 175.022665 L 159.905998 1575.203989 L 159.905998 1635.198263 C 159.905998 1668.265973 186.832562 1695.192537 219.900272 1695.192537 L 279.894546 1695.192537 L 950.460467 1042.813857 L 1639.922222 1695.192537 L 1699.916496 1695.192537 C 1733.220404 1695.192537 1759.91077 1668.265973 1759.91077 1635.198263 L 1759.91077 1575.203989 L 1072.1024 924.478694 L 1759.91077 255.093763 L 1759.91077 235.016939 C 1759.91077 201.949229 1733.220404 175.022665 1699.916496 175.022665 Z M 1639.922222 175.022665 " transform="matrix(0.016538,0,0,0.016538,0,0)"/>
<path style=" stroke:none;fill-rule:nonzero;fill:rgb(100%,100%,100%);fill-opacity:0.643137;" d="M 3.96875 2.894531 C 3.234375 2.894531 2.644531 3.484375 2.644531 4.21875 L 2.644531 4.382812 C 2.644531 3.652344 3.234375 3.0625 3.96875 3.0625 L 27.785156 3.0625 C 28.515625 3.0625 29.105469 3.652344 29.105469 4.382812 L 29.105469 4.21875 C 29.105469 3.484375 28.515625 2.894531 27.785156 2.894531 Z M 3.96875 2.894531 "/>
<path style=" stroke:none;fill-rule:nonzero;fill:rgb(12.941177%,12.941177%,12.941177%);fill-opacity:1;" d="M 3.636719 2.800781 C 3.039062 2.800781 2.550781 3.289062 2.550781 3.886719 L 2.550781 27.042969 C 2.550781 27.640625 3.039062 28.128906 3.636719 28.128906 L 28.113281 28.128906 C 28.714844 28.128906 29.199219 27.640625 29.199219 27.042969 L 29.199219 3.886719 C 29.199219 3.289062 28.714844 2.800781 28.113281 2.800781 Z M 3.636719 2.988281 L 28.113281 2.988281 C 28.613281 2.988281 29.011719 3.390625 29.011719 3.886719 L 29.011719 27.042969 C 29.011719 27.542969 28.613281 27.941406 28.113281 27.941406 L 3.636719 27.941406 C 3.140625 27.941406 2.738281 27.542969 2.738281 27.042969 L 2.738281 3.886719 C 2.738281 3.390625 3.140625 2.988281 3.636719 2.988281 Z M 3.636719 2.988281 "/>
<path style="fill-rule:nonzero;fill:url(#linear4);stroke-width:3;stroke-linecap:round;stroke-linejoin:miter;stroke:rgb(12.941177%,12.941177%,12.941177%);stroke-opacity:1;stroke-miterlimit:4;" d="M 328.093669 -126.320968 C 287.03509 -126.320968 253.975747 -93.261625 253.975747 -52.26554 C 253.975747 16.540389 306.908192 85.346318 328.093669 106.469301 C 343.967153 85.346318 402.149097 16.540389 402.149097 -52.26554 C 402.149097 -93.261625 369.152248 -126.320968 328.093669 -126.320968 Z M 328.093669 -84.012509 C 345.654492 -84.012509 359.840637 -69.826363 359.840637 -52.26554 C 359.840637 -34.642223 345.654492 -20.518572 328.093669 -20.518572 C 310.470352 -20.518572 296.3467 -34.642223 296.3467 -52.26554 C 296.3467 -69.826363 310.470352 -84.012509 328.093669 -84.012509 Z M 328.093669 -84.012509 " transform="matrix(0.062506,0,0,0.062506,0,13.438783)"/>
</g>
</svg>

<svg xmlns="http://www.w3.org/2000/svg" width="32pt" height="32pt" viewBox="0 0 32 32"><defs><linearGradient id="a" gradientUnits="userSpaceOnUse" x1="254" y1="233.5" x2="254" y2="-168.667" gradientTransform="matrix(.0625 0 0 .0625 0 13.439)"><stop offset="0" stop-color="#64b5f6"/><stop offset="1" stop-color="#90caf9"/></linearGradient><linearGradient id="b" gradientUnits="userSpaceOnUse" x1="254" y1="233.5" x2="254" y2="254.667" gradientTransform="matrix(.0625 0 0 .0625 0 13.439)"><stop offset="0" stop-opacity=".275"/><stop offset="1" stop-opacity="0"/></linearGradient><radialGradient id="c" gradientUnits="userSpaceOnUse" cx="450.909" cy="189.579" fx="450.909" fy="189.579" r="21.167" gradientTransform="matrix(0 -.07813 -.14064 0 53.123 63.595)"><stop offset="0" stop-opacity=".314"/><stop offset=".222" stop-opacity=".275"/><stop offset="1" stop-opacity="0"/></radialGradient><radialGradient id="d" gradientUnits="userSpaceOnUse" cx="450.909" cy="189.579" fx="450.909" fy="189.579" r="21.167" gradientTransform="matrix(0 .07813 .14064 0 -21.205 -7.527)"><stop offset="0" stop-opacity=".314"/><stop offset=".222" stop-opacity=".275"/><stop offset="1" stop-opacity="0"/></radialGradient><radialGradient id="e" gradientUnits="userSpaceOnUse" cx="450.909" cy="189.579" fx="450.909" fy="189.579" r="21.167" gradientTransform="matrix(0 -.07813 .14064 0 -21.205 63.595)"><stop offset="0" stop-opacity=".314"/><stop offset=".222" stop-opacity=".275"/><stop offset="1" stop-opacity="0"/></radialGradient><radialGradient id="f" gradientUnits="userSpaceOnUse" cx="450.909" cy="189.579" fx="450.909" fy="189.579" r="21.167" gradientTransform="matrix(0 .07813 -.14064 0 53.123 -7.527)"><stop offset="0" stop-opacity=".314"/><stop offset=".222" stop-opacity=".275"/><stop offset="1" stop-opacity="0"/></radialGradient><linearGradient id="g" gradientUnits="userSpaceOnUse" x1="306.917" y1="233.5" x2="317.5" y2="-147.5" gradientTransform="matrix(.0625 0 0 .0625 0 13.439)"><stop offset="0" stop-color="#4caf50"/><stop offset="1" stop-color="#66bb6a"/></linearGradient><linearGradient id="h" gradientUnits="userSpaceOnUse" x1="960" y1="1695.118" x2="960" y2="175.118"><stop offset="0" stop-color="#d7ccc8"/><stop offset="1" stop-color="#efebe9"/></linearGradient><linearGradient id="i" gradientUnits="userSpaceOnUse" x1="1240" y1="495.118" x2="1240" y2="1375.118" gradientTransform="matrix(.26458 0 0 .26458 0 -257.333)"><stop offset="0" stop-color="#ef5350"/><stop offset="1" stop-color="#f44336"/></linearGradient></defs><path d="M3.637 2.895h24.476c.551 0 .992.445.992.992v23.156a.991.991 0 0 1-.992.992H3.637a.994.994 0 0 1-.992-.992V3.887c0-.547.445-.992.992-.992zm0 0" fill="url(#a)"/><path d="M5.125 28.035h21.668v1.32H5.125zm0 0" fill="url(#b)"/><path d="M26.793 28.035h2.645v-1.324h-2.645zm0 0" fill="url(#c)"/><path d="M5.125 28.035H2.48v1.32h2.645zm0 0" fill="url(#d)"/><path d="M5.125 28.035H2.48v-1.324h2.645zm0 0" fill="url(#e)"/><path d="M26.793 28.035h2.645v1.32h-2.645zm0 0" fill="url(#f)"/><path d="M29.105 4.219L17.73 15.289l11.375 10.762zM15.72 17.246l-11.09 10.79H27.12zm0 0" fill="url(#g)"/><path d="M3.969 28.035a1.32 1.32 0 0 1-1.324-1.324v-.164c0 .73.59 1.32 1.324 1.32h23.816c.73 0 1.32-.59 1.32-1.32v.164a1.32 1.32 0 0 1-1.32 1.324zm0 0" fill-opacity=".196"/><path d="M1639.922 175.023L159.906 1575.204v59.994c0 33.068 26.927 59.995 59.994 59.995h59.995l670.565-652.38 689.462 652.38h59.994c33.304 0 59.995-26.927 59.995-59.995v-59.994l-687.809-650.725 687.809-669.385v-20.077c0-33.068-26.69-59.994-59.995-59.994zm0 0" transform="rotate(.891) scale(.01654)" fill-rule="evenodd" fill="url(#h)" stroke-width="11.339" stroke="#212121"/><path d="M3.969 2.895a1.32 1.32 0 0 0-1.324 1.324v.164c0-.73.59-1.32 1.324-1.32h23.816c.73 0 1.32.59 1.32 1.32v-.164a1.32 1.32 0 0 0-1.32-1.324zm0 0" fill="#fff" fill-opacity=".643"/><path d="M3.637 2.8c-.598 0-1.086.49-1.086 1.087v23.156c0 .598.488 1.086 1.086 1.086h24.476c.602 0 1.086-.488 1.086-1.086V3.887c0-.598-.484-1.086-1.086-1.086zm0 .188h24.476c.5 0 .899.403.899.899v23.156c0 .5-.399.898-.899.898H3.637a.896.896 0 0 1-.899-.898V3.887c0-.496.403-.899.899-.899zm0 0" fill="#212121"/><path d="M328.094-126.321c-41.059 0-74.118 33.06-74.118 74.055 0 68.806 52.932 137.612 74.118 158.735 15.873-21.123 74.055-89.929 74.055-158.735 0-40.996-32.997-74.055-74.055-74.055zm0 42.308c17.56 0 31.747 14.187 31.747 31.747 0 17.624-14.187 31.747-31.747 31.747a31.633 31.633 0 0 1-31.747-31.747c0-17.56 14.123-31.747 31.747-31.747zm0 0" transform="matrix(.0625 0 0 .0625 0 13.439)" fill="url(#i)" stroke-width="3" stroke-linecap="round" stroke="#212121"/></svg>
